src/view/frontend/web/svg/heroicons/solid/save-as.svg

<svg viewBox="0 0 20 20" fill="currentColor" xmlns="http://www.w3.org/2000/svg">
<path d="M9.70711 7.29289C9.31658 6.90237 8.68342 6.90237 8.29289 7.29289C7.90237 7.68342 7.90237 8.31658 8.29289 8.70711L11.2929 11.7071C11.6834 12.0976 12.3166 12.0976 12.7071 11.7071L15.7071 8.70711C16.0976 8.31658 16.0976 7.68342 15.7071 7.29289C15.3166 6.90237 14.6834 6.90237 14.2929 7.29289L13 8.58579L13 5H16C17.1046 5 18 5.89543 18 7V12C18 13.1046 17.1046 14 16 14H8C6.89543 14 6 13.1046 6 12V7C6 5.89543 6.89543 5 8 5H11L11 8.58579L9.70711 7.29289Z" />
<path d="M11 3C11 2.44772 11.4477 2 12 2C12.5523 2 13 2.44772 13 3L13 5H11L11 3Z" />
<path d="M4 9C2.89543 9 2 9.89543 2 11V16C2 17.1046 2.89543 18 4 18H12C13.1046 18 14 17.1046 14 16H4V9Z" />
</svg>

<svg xmlns="http://www.w3.org/2000/svg" fill="currentColor" viewBox="0 0 20 20"><path d="M9.707 7.293a1 1 0 0 0-1.414 1.414l3 3a1 1 0 0 0 1.414 0l3-3a1 1 0 0 0-1.414-1.414L13 8.586V5h3a2 2 0 0 1 2 2v5a2 2 0 0 1-2 2H8a2 2 0 0 1-2-2V7a2 2 0 0 1 2-2h3v3.586L9.707 7.293ZM11 3a1 1 0 1 1 2 0v2h-2V3Z"/><path d="M4 9a2 2 0 0 0-2 2v5a2 2 0 0 0 2 2h8a2 2 0 0 0 2-2H4V9Z"/></svg>
